X:11
T:Highland Man. LIT.011, The
M:2/4
Q:1/4=140
L:1/8
B:Wm. Litten MS, 1802
Z:Village Music Project 2017 Anne Wride
K:C
ce ge | af ge | ce ge | dB GB |
ce ge | af ge | af ge | dB GB :|
|: ce Ae | ce Ae | ce Ae | d/c/B/A/ GB |
ce Ae | ce Ae | af ge | dB GB :|

